projects/vfh1/img/icons/schedule.svg

<svg viewBox="0 0 19 18" fill="none" xmlns="http://www.w3.org/2000/svg">
<path fill="currentColor" d="M5.03809 14C5.32142 14 5.55909 13.904 5.75109 13.712C5.94242 13.5207 6.03809 13.2833 6.03809 13C6.03809 12.7167 5.94242 12.479 5.75109 12.287C5.55909 12.0957 5.32142 12 5.03809 12C4.75475 12 4.51709 12.0957 4.32509 12.287C4.13375 12.479 4.03809 12.7167 4.03809 13C4.03809 13.2833 4.13375 13.5207 4.32509 13.712C4.51709 13.904 4.75475 14 5.03809 14ZM5.03809 10C5.32142 10 5.55909 9.904 5.75109 9.712C5.94242 9.52067 6.03809 9.28333 6.03809 9C6.03809 8.71667 5.94242 8.479 5.75109 8.287C5.55909 8.09567 5.32142 8 5.03809 8C4.75475 8 4.51709 8.09567 4.32509 8.287C4.13375 8.479 4.03809 8.71667 4.03809 9C4.03809 9.28333 4.13375 9.52067 4.32509 9.712C4.51709 9.904 4.75475 10 5.03809 10ZM5.03809 6C5.32142 6 5.55909 5.904 5.75109 5.712C5.94242 5.52067 6.03809 5.28333 6.03809 5C6.03809 4.71667 5.94242 4.479 5.75109 4.287C5.55909 4.09567 5.32142 4 5.03809 4C4.75475 4 4.51709 4.09567 4.32509 4.287C4.13375 4.479 4.03809 4.71667 4.03809 5C4.03809 5.28333 4.13375 5.52067 4.32509 5.712C4.51709 5.904 4.75475 6 5.03809 6ZM8.03809 14H14.0381V12H8.03809V14ZM8.03809 10H14.0381V8H8.03809V10ZM8.03809 6H14.0381V4H8.03809V6ZM2.03809 18C1.48809 18 1.01709 17.8043 0.625086 17.413C0.233752 17.021 0.0380859 16.55 0.0380859 16V2C0.0380859 1.45 0.233752 0.979 0.625086 0.587C1.01709 0.195667 1.48809 0 2.03809 0H16.0381C16.5881 0 17.0591 0.195667 17.4511 0.587C17.8424 0.979 18.0381 1.45 18.0381 2V16C18.0381 16.55 17.8424 17.021 17.4511 17.413C17.0591 17.8043 16.5881 18 16.0381 18H2.03809Z" />
</svg>

<svg viewBox="0 0 19 18" fill="none" xmlns="http://www.w3.org/2000/svg"><path fill="currentColor" d="M5.038 14a.968.968 0 00.713-.288.967.967 0 00.287-.712.97.97 0 00-.287-.713.97.97 0 00-.713-.287.97.97 0 00-.713.287.97.97 0 00-.287.713c0 .283.096.52.287.712.192.192.43.288.713.288zm0-4a.968.968 0 00.713-.288A.967.967 0 006.038 9a.97.97 0 00-.287-.713A.97.97 0 005.038 8a.97.97 0 00-.713.287.97.97 0 00-.287.713c0 .283.096.52.287.712.192.192.43.288.713.288zm0-4a.968.968 0 00.713-.288A.967.967 0 006.038 5a.97.97 0 00-.287-.713A.97.97 0 005.038 4a.97.97 0 00-.713.287.97.97 0 00-.287.713c0 .283.096.52.287.712.192.192.43.288.713.288zm3 8h6v-2h-6v2zm0-4h6V8h-6v2zm0-4h6V4h-6v2zm-6 12c-.55 0-1.02-.196-1.413-.587A1.928 1.928 0 01.038 16V2c0-.55.196-1.021.587-1.413A1.928 1.928 0 012.038 0h14c.55 0 1.021.196 1.413.587.391.392.587.863.587 1.413v14a1.93 1.93 0 01-.587 1.413 1.928 1.928 0 01-1.413.587h-14z"/></svg>
